packages/blockchain-info-components/src/Images/img/withdraw-blue-circle.svg

<svg fill="none" height="24" viewBox="0 0 24 24" width="24" xmlns="http://www.w3.org/2000/svg"><circle cx="12" cy="12" fill="#d8ebfd" r="12"/><path d="m17.2263 10.0676c.2928.2929.2928.7678 0 1.0607l-.3554.3554c-.2929.2928-.7678.2928-1.0607 0l-2.7052-2.7053v9.4096c0 .4142-.3358.75-.75.75h-.5025c-.4142 0-.75-.3358-.75-.75v-9.42121l-2.71685 2.71681c-.29289.2929-.76777.2929-1.06066 0l-.35532-.3553c-.29289-.2929-.29289-.7678 0-1.0607l4.59793-4.59793c.2929-.29289.7678-.29289 1.0607 0z" fill="#0c6cf2"/></svg>

<svg width="24" height="24" viewBox="0 0 24 24" fill="none" xmlns="http://www.w3.org/2000/svg">
<circle cx="12" cy="12" r="12" fill="#D8EBFD"/>
<path d="M17.2263 10.0676C17.5191 10.3605 17.5191 10.8354 17.2263 11.1283L16.8709 11.4837C16.578 11.7765 16.1031 11.7765 15.8102 11.4837L13.105 8.7784L13.105 18.188C13.105 18.6022 12.7692 18.938 12.355 18.938H11.8525C11.4383 18.938 11.1025 18.6022 11.1025 18.188L11.1025 8.76679L8.38565 11.4836C8.09276 11.7765 7.61788 11.7765 7.32499 11.4836L6.96967 11.1283C6.67678 10.8354 6.67678 10.3605 6.96967 10.0676L11.5676 5.46967C11.8605 5.17678 12.3354 5.17678 12.6283 5.46967L17.2263 10.0676Z" fill="#0C6CF2"/>
</svg>
